; generated by PrusaSlicer 2.5.2+win64 on 2023-11-09 at 12:11:49 UTC


;
;
; 

; external perimeters extrusion width = 0.45mm
; perimeters extrusion width = 0.45mm
; infill extrusion width = 0.45mm
; solid infill extrusion width = 0.45mm
; top infill extrusion width = 0.40mm
; support material extrusion width = 0.35mm
; first layer extrusion width = 0.42mm

; external perimeters extrusion width = 0.45mm
; perimeters extrusion width = 0.45mm
; infill extrusion width = 0.45mm
; solid infill extrusion width = 0.45mm
; top infill extrusion width = 0.40mm
; support material extrusion width = 0.35mm
; first layer extrusion width = 0.42mm

; external perimeters extrusion width = 0.45mm
; perimeters extrusion width = 0.45mm
; infill extrusion width = 0.45mm
; solid infill extrusion width = 0.45mm
; top infill extrusion width = 0.40mm
; support material extrusion width = 0.35mm
; first layer extrusion width = 0.42mm

; external perimeters extrusion width = 0.45mm
; perimeters extrusion width = 0.45mm
; infill extrusion width = 0.45mm
; solid infill extrusion width = 0.45mm
; top infill extrusion width = 0.40mm
; support material extrusion width = 0.35mm
; first layer extrusion width = 0.42mm

M73 P0 R150
M73 Q0 S151
M201 X1000 Y1000 Z200 E5000 ; sets maximum accelerations, mm/sec^2
M203 X200 Y200 Z12 E120 ; sets maximum feedrates, mm / sec
M204 P1250 R1250 T1250 ; sets acceleration (P, T) and retract acceleration (R), mm/sec^2
M205 X8.00 Y8.00 Z0.40 E4.50 ; sets the jerk limits, mm/sec
M205 S0 T0 ; sets the minimum extruding and travel feed rate, mm/sec
M107
;TYPE:Custom
M862.3 P "MK3S" ; printer model check
M862.1 P0.4 ; nozzle diameter check
M115 U3.11.0 ; tell printer latest fw version
G90 ; use absolute coordinates
M83 ; extruder relative mode
M104 S215 ; set extruder temp
M140 S60 ; set bed temp
M190 S60 ; wait for bed temp
M109 S215 ; wait for extruder temp
G28 W ; home all without mesh bed level
G80 ; mesh bed leveling

G1 Z0.2 F720
G1 Y-3 F1000 ; go outside print area
G92 E0
G1 X60 E9 F1000 ; intro line
G1 X100 E12.5 F1000 ; intro line

G92 E0
M221 S95

; Don't change E values below. Excessive value can damage the printer.
M907 E430 ; set extruder motor current
G21 ; set units to millimeters
G90 ; use absolute coordinates
M83 ; use relative distances for extrusion
M900 K0.05 ; Filament gcode LA 1.5
M900 K30 ; Filament gcode LA 1.0
M107
;LAYER_CHANGE
;Z:0.2
;HEIGHT:0.2
;BEFORE_LAYER_CHANGE
G92 E0.0
;0.2


G1 E-.8 F2100
G1 Z.4 F720
;AFTER_LAYER_CHANGE
;0.2
G1 X98.154 Y78.502 F10800
G1 Z.2 F720
G1 E.8 F2100
M204 S800
;TYPE:Skirt/Brim
;WIDTH:0.42
G1 F1200
G1 X99.763 Y77.635 E.05731
G1 X119.763 Y75.635 E.63021
G1 X130.237 Y75.635 E.32838
G1 X150.237 Y77.635 E.63021
G1 X151.306 Y78.014 E.03556
G1 X172.545 Y91.974 E.79692
G1 X173.422 Y93.019 E.04278
G1 X173.613 Y94.091 E.03414
G1 X171.087 Y139.222 E1.41728
G1 X170.942 Y139.914 E.02214
G1 X153.057 Y188.127 E1.61235
G1 X152.235 Y189.216 E.04278
G1 X150.828 Y189.677 E.04642
G1 X100.828 Y189.677 E1.56771
G1 X99.521 Y189.285 E.04278
G1 X98.645 Y188.24 E.04278
G1 X98.452 Y187.387 E.02741
G1 X95.625 Y110.087 E2.4253
G1 X95.635 Y99.763 E.32368
G1 X97.635 Y79.763 E.63021
G1 X98.132 Y78.557 E.0409
M204 S1000
; printing object test_up.stl id:2 copy 0
;WIPE_START
G1 F8640
G1 X99.763 Y77.635 E-.43287
G1 X101.173 Y77.494 E-.32713
;WIPE_END
G1 E-.04 F2100
G1 Z.6 F720
G1 X144.791 Y167.566 F10800
G1 Z.2 F720
G1 E.8 F2100
M204 S800
;TYPE:Support material
G1 F1200
G1 X139.104 Y167.566 E.17833
G1 X139.104 Y157.033 E.33026
G1 X144.791 Y157.033 E.17833
G1 X144.791 Y167.51 E.32849
M204 S1000
G1 X144.263 Y167.397 F10800
M204 S800
G1 F1200
G1 X144.263 Y157.373 E.3143
G1 X143.844 Y157.373 E.01314
G1 X143.844 Y167.227 E.30898
G1 X143.425 Y167.227 E.01314
G1 X143.425 Y157.373 E.30898
G1 X143.006 Y157.373 E.01314
G1 X143.006 Y167.227 E.30898
G1 X142.587 Y167.227 E.01314
G1 X142.587 Y157.373 E.30898
G1 X142.168 Y157.373 E.01314
G1 X142.168 Y167.227 E.30898
G1 X141.749 Y167.227 E.01314
G1 X141.749 Y157.373 E.30898
G1 X141.33 Y157.373 E.01314
G1 X141.33 Y167.227 E.30898
G1 X140.911 Y167.227 E.01314
G1 X140.911 Y157.373 E.30898
G1 X140.492 Y157.373 E.01314
G1 X140.492 Y167.227 E.30898
G1 X140.073 Y167.227 E.01314
G1 X140.073 Y157.373 E.30898
G1 X139.654 Y157.373 E.01314
G1 X139.654 Y167.397 E.3143
M204 S1000
;WIPE_START
G1 F8640
G1 X139.654 Y164.105 E-.76
;WIPE_END
G1 E-.04 F2100
G1 Z.6 F720
G1 X151.955 Y169.884 F10800
G1 Z.2 F720
G1 E.8 F2100
M204 S800
G1 F1200
G1 X149.308 Y169.884 E.08299
G1 X149.308 Y154.715 E.47561
G1 X151.955 Y154.715 E.08299
G1 X151.955 Y169.828 E.47384
M204 S1000
G1 X151.386 Y169.715 F10800
M204 S800
G1 F1200
G1 X151.386 Y155.055 E.45965
G1 X150.967 Y155.055 E.01314
G1 X150.967 Y169.545 E.45433
G1 X150.548 Y169.545 E.01314
G1 X150.548 Y155.055 E.45433
G1 X150.129 Y155.055 E.01314
G1 X150.129 Y169.545 E.45433
G1 X149.71 Y169.545 E.01314
G1 X149.71 Y154.885 E.45965
M204 S1000
;WIPE_START
G1 F8640
G1 X149.71 Y158.176 E-.76
;WIPE_END
G1 E-.04 F2100
G1 Z.6 F720
G1 X148.516 Y151.54 F10800
G1 Z.2 F720
G1 E.8 F2100
M204 S800
;TYPE:Perimeter
;WIDTH:0.419999
G1 F1200
G1 X148.292 Y151.608 E.00735
G1 X148.116 Y151.796 E.00807
G1 X148.041 Y152.078 E.00915
G1 X148.041 Y172.521 E.64097
G1 X148.116 Y172.803 E.00915
G1 X148.292 Y172.991 E.00807
G1 X148.606 Y173.087 E.0103
G1 X150.041 Y173.087 E.04497
G1 X150.041 Y186.513 E.42096
G1 X136.615 Y186.513 E.42096
G1 X136.615 Y185.078 E.04497
G1 X136.52 Y184.764 E.0103
G1 X136.331 Y184.588 E.00807
G1 X136.049 Y184.513 E.00915
G1 X115.606 Y184.513 E.64097
G1 X115.324 Y184.588 E.00915
G1 X115.136 Y184.764 E.00807
G1 X115.041 Y185.078 E.0103
G1 X115.041 Y186.513 E.04497
G1 X101.615 Y186.513 E.42096
G1 X101.615 Y173.087 E.42096
G1 X103.049 Y173.087 E.04497
G1 X103.364 Y172.991 E.0103
G1 X103.54 Y172.803 E.00807
G1 X103.615 Y172.521 E.00915
G1 X103.615 Y152.078 E.64097
G1 X103.54 Y151.796 E.00915
G1 X103.364 Y151.608 E.00807
G1 X103.049 Y151.513 E.0103
G1 X101.615 Y151.513 E.04497
G1 X101.615 Y138.087 E.42096
G1 X115.041 Y138.087 E.42096
G1 X115.041 Y139.521 E.04497
G1 X115.136 Y139.836 E.0103
G1 X115.324 Y140.011 E.00807
G1 X115.606 Y140.087 E.00915
G1 X136.049 Y140.087 E.64097
G1 X136.331 Y140.011 E.00915
G1 X136.52 Y139.836 E.00807
G1 X136.615 Y139.521 E.0103
G1 X136.615 Y138.087 E.04497
G1 X150.041 Y138.087 E.42096
M73 P0 R149
G1 X150.041 Y151.513 E.42096
M73 Q0 S150
G1 X148.574 Y151.523 E.046
M204 S1000
G1 X148.606 Y151.89 F10800
M204 S800
;TYPE:External perimeter
G1 F1200
G1 X148.502 Y151.922 E.00343
G1 X148.418 Y152.078 E.00557
G1 X148.418 Y172.521 E.64097
G1 X148.421 Y172.554 E.00103
G1 X148.502 Y172.678 E.00465
G1 X148.606 Y172.71 E.00343
G1 X150.418 Y172.71 E.0568
G1 X150.418 Y186.89 E.4446
G1 X136.238 Y186.89 E.4446
G1 X136.238 Y185.078 E.0568
G1 X136.206 Y184.974 E.00343
G1 X136.049 Y184.89 E.00557
G1 X115.606 Y184.89 E.64097
G1 X115.574 Y184.893 E.00103
G1 X115.45 Y184.974 E.00465
G1 X115.418 Y185.078 E.00343
G1 X115.418 Y186.89 E.0568
G1 X101.238 Y186.89 E.4446
G1 X101.238 Y172.71 E.4446
G1 X103.049 Y172.71 E.0568
G1 X103.09 Y172.705 E.0013
G1 X103.213 Y172.615 E.00476
G1 X103.238 Y172.521 E.00305
G1 X103.238 Y152.078 E.64097
G1 X103.154 Y151.922 E.00557
G1 X103.049 Y151.89 E.00343
G1 X101.238 Y151.89 E.0568
G1 X101.238 Y137.71 E.4446
G1 X115.418 Y137.71 E.4446
G1 X115.418 Y139.521 E.0568
G1 X115.45 Y139.626 E.00343
G1 X115.606 Y139.71 E.00557
G1 X136.049 Y139.71 E.64097
G1 X136.082 Y139.707 E.00103
G1 X136.206 Y139.626 E.00465
G1 X136.238 Y139.521 E.00343
G1 X136.238 Y137.71 E.0568
G1 X150.418 Y137.71 E.4446
G1 X150.418 Y151.89 E.4446
G1 X148.666 Y151.89 E.05492
M204 S1000
G1 X148.504 Y151.85 F10800
;WIPE_START
G1 F8640
G1 X148.502 Y151.922 E-.03875
G1 X148.418 Y152.078 E-.04103
G1 X148.418 Y155.024 E-.68021
;WIPE_END
G1 E-.04 F2100
G1 Z.6 F720
G1 X145.524 Y182.528 F10800
G1 Z.2 F720
G1 E.8 F2100
M204 S800
;TYPE:Perimeter
G1 F1200
G1 X106.163 Y182.53 E1.23413
G1 X105.873 Y182.45 E.00944
G1 X105.678 Y182.255 E.00866
G1 X105.597 Y181.965 E.00944
G1 X105.597 Y142.635 E1.23315
G1 X105.678 Y142.345 E.00944
G1 X105.873 Y142.149 E.00866
G1 X106.163 Y142.069 E.00944
G1 X145.493 Y142.069 E1.23315
G1 X145.783 Y142.149 E.00944
G1 X145.978 Y142.345 E.00866
G1 X146.058 Y142.635 E.00944
G1 X146.058 Y181.965 E1.23315
G1 X145.978 Y182.255 E.00944
G1 X145.783 Y182.45 E.00866
G1 X145.584 Y182.522 E.00665
M204 S1000
G1 X145.493 Y182.153 F10800
M204 S800
;TYPE:External perimeter
G1 F1200
G1 X106.163 Y182.153 E1.23315
G1 X106.03 Y182.098 E.00452
G1 X105.975 Y181.965 E.00452
G1 X105.975 Y142.635 E1.23315
G1 X106.03 Y142.502 E.00452
G1 X106.163 Y142.446 E.00452
G1 X145.493 Y142.446 E1.23315
G1 X145.626 Y142.502 E.00452
G1 X145.681 Y142.635 E.00452
G1 X145.681 Y181.965 E1.23315
G1 X145.626 Y182.098 E.00452
G1 X145.55 Y182.138 E.0027
M204 S1000
G1 X145.389 Y182.54 F10800
;WIPE_START
G1 F8640
G1 X142.258 Y182.139 E-.76
;WIPE_END
G1 E-.04 F2100
G1 Z.6 F720
G1 X149.928 Y138.966 F10800
G1 Z.2 F720
G1 E.8 F2100
M204 S800
;TYPE:Solid infill
;WIDTH:0.421908
G1 F1200
G1 X149.331 Y138.37 E.02659
G1 X148.795 Y138.37 E.01689
G1 X149.758 Y139.333 E.04291
G1 X149.758 Y139.869 E.01689
G1 X148.259 Y138.37 E.0668
G1 X147.723 Y138.37 E.01689
G1 X149.758 Y140.404 E.09069
G1 X149.758 Y140.94 E.01689
G1 X147.187 Y138.37 E.11457
G1 X146.651 Y138.37 E.01689
G1 X149.758 Y141.476 E.13846
G1 X149.758 Y142.012 E.01689
G1 X146.115 Y138.37 E.16234
G1 X145.579 Y138.37 E.01689
G1 X149.758 Y142.548 E.18623
G1 X149.758 Y143.084 E.01689
G1 X145.043 Y138.37 E.21012
G1 X144.507 Y138.37 E.01689
G1 X149.758 Y143.62 E.234
G1 X149.758 Y144.156 E.01689
G1 X143.971 Y138.37 E.25789
G1 X143.435 Y138.37 E.01689
G1 X149.758 Y144.692 E.28177
G1 X149.758 Y145.228 E.01689
G1 X142.899 Y138.37 E.30566
G1 X142.363 Y138.37 E.01689
G1 X149.758 Y145.764 E.32955
G1 X149.758 Y146.3 E.01689
G1 X146.341 Y142.883 E.15228
G1 X146.341 Y143.419 E.01689
G1 X149.758 Y146.836 E.15228
G1 X149.758 Y147.372 E.01689
G1 X146.341 Y143.955 E.15228
G1 X146.341 Y144.491 E.01689
G1 X149.758 Y147.908 E.15228
G1 X149.758 Y148.444 E.01689
G1 X146.341 Y145.027 E.15228
G1 X146.341 Y145.563 E.01689
G1 X149.758 Y148.98 E.15228
G1 X149.758 Y149.516 E.01689
G1 X146.341 Y146.099 E.15228
G1 X146.341 Y146.635 E.01689
G1 X149.758 Y150.052 E.15228
G1 X149.758 Y150.588 E.01689
G1 X146.341 Y147.171 E.15228
G1 X146.341 Y147.707 E.01689
G1 X149.758 Y151.124 E.15228
G1 X149.758 Y151.23 E.00334
G1 X149.328 Y151.23 E.01355
G1 X146.341 Y148.243 E.13311
G1 X146.341 Y148.779 E.01689
G1 X148.792 Y151.23 E.10923
G1 X148.418 Y151.25 E.01181
G1 X148.319 Y151.293 E.0034
G1 X146.341 Y149.315 E.08813
G1 X146.341 Y149.851 E.01689
G1 X148.002 Y151.512 E.07401
G1 X147.868 Y151.655 E.00619
G1 X147.813 Y151.859 E.00665
G1 X146.341 Y150.387 E.06561
G1 X146.341 Y150.923 E.01689
G1 X147.758 Y152.34 E.06314
G1 X147.758 Y152.876 E.01689
G1 X146.341 Y151.459 E.06314
G1 X146.341 Y151.995 E.01689
G1 X147.758 Y153.412 E.06314
G1 X147.758 Y153.948 E.01689
G1 X146.341 Y152.531 E.06314
G1 X146.341 Y153.067 E.01689
G1 X147.758 Y154.484 E.06314
G1 X147.758 Y155.02 E.01689
G1 X146.341 Y153.603 E.06314
G1 X146.341 Y154.139 E.01689
G1 X147.758 Y155.556 E.06314
G1 X147.758 Y156.092 E.01689
G1 X146.341 Y154.675 E.06314
G1 X146.341 Y155.211 E.01689
G1 X147.758 Y156.627 E.06314
G1 X147.758 Y157.163 E.01689
G1 X146.341 Y155.747 E.06314
G1 X146.341 Y156.283 E.01689
G1 X147.758 Y157.699 E.06314
G1 X147.758 Y158.235 E.01689
G1 X146.341 Y156.819 E.06314
G1 X146.341 Y157.355 E.01689
G1 X147.758 Y158.771 E.06314
G1 X147.758 Y159.307 E.01689
G1 X146.341 Y157.89 E.06314
G1 X146.341 Y158.426 E.01689
G1 X147.758 Y159.843 E.06314
G1 X147.758 Y160.379 E.01689
G1 X146.341 Y158.962 E.06314
G1 X146.341 Y159.498 E.01689
G1 X147.758 Y160.915 E.06314
G1 X147.758 Y161.451 E.01689
G1 X146.341 Y160.034 E.06314
G1 X146.341 Y160.57 E.01689
G1 X147.758 Y161.987 E.06314
G1 X147.758 Y162.523 E.01689
G1 X146.341 Y161.106 E.06314
G1 X146.341 Y161.642 E.01689
G1 X147.758 Y163.059 E.06314
G1 X147.758 Y163.595 E.01689
G1 X146.341 Y162.178 E.06314
G1 X146.341 Y162.714 E.01689
G1 X147.758 Y164.131 E.06314
G1 X147.758 Y164.667 E.01689
G1 X146.341 Y163.25 E.06314
G1 X146.341 Y163.786 E.01689
G1 X147.758 Y165.203 E.06314
G1 X147.758 Y165.739 E.01689
G1 X146.341 Y164.322 E.06314
G1 X146.341 Y164.858 E.01689
M73 Q1 S150
G1 X147.758 Y166.275 E.06314
M73 P1 R149
G1 X147.758 Y166.811 E.01689
G1 X146.341 Y165.394 E.06314
G1 X146.341 Y165.93 E.01689
G1 X147.758 Y167.347 E.06314
G1 X147.758 Y167.883 E.01689
G1 X146.341 Y166.466 E.06314
G1 X146.341 Y167.002 E.01689
G1 X147.758 Y168.419 E.06314
G1 X147.758 Y168.955 E.01689
G1 X146.341 Y167.538 E.06314
G1 X146.341 Y168.074 E.01689
G1 X147.758 Y169.491 E.06314
G1 X147.758 Y170.027 E.01689
G1 X146.341 Y168.61 E.06314
G1 X146.341 Y169.146 E.01689
G1 X147.758 Y170.563 E.06314
G1 X147.758 Y171.099 E.01689
G1 X146.341 Y169.682 E.06314
G1 X146.341 Y170.218 E.01689
G1 X147.758 Y171.635 E.06314
G1 X147.758 Y172.171 E.01689
G1 X146.172 Y170.584 E.07071
M204 S1000
;WIPE_START
G1 F8640
G1 X147.758 Y172.171 E-.51808
G1 X147.758 Y171.635 E-.12376
G1 X147.396 Y171.273 E-.11817
;WIPE_END
G1 E-.04 F2100
G1 Z.6 F720
G1 X149.323 Y173.2 F10800
G1 Z.2 F720
G1 E.8 F2100
M204 S800
G1 F1200
G1 X149.758 Y173.635 E.01937
G1 X149.758 Y174.171 E.01689
G1 X148.787 Y173.2 E.04326
M204 S1000
;WIPE_START
G1 F8640
G1 X149.758 Y174.171 E-.31696
G1 X149.758 Y173.635 E-.12376
G1 X149.323 Y173.2 E-.14194
;WIPE_END
G1 E-.21734 F2100
G1 Z.6 F720
G1 X146.172 Y171.12 F10800
G1 Z.2 F720
G1 E.8 F2100
M204 S800
G1 F1200
G1 X149.758 Y174.707 E.15984
G1 X149.758 Y175.243 E.01689
G1 X146.341 Y171.826 E.15228
G1 X146.341 Y172.362 E.01689
G1 X149.758 Y175.779 E.15228
G1 X149.758 Y176.314 E.01689
G1 X146.341 Y172.898 E.15228
G1 X146.341 Y173.434 E.01689
G1 X149.758 Y176.85 E.15228
G1 X149.758 Y177.386 E.01689
G1 X146.341 Y173.97 E.15228
G1 X146.341 Y174.506 E.01689
G1 X149.758 Y177.922 E.15228
G1 X149.758 Y178.458 E.01689
G1 X146.341 Y175.042 E.15228
G1 X146.341 Y175.577 E.01689
G1 X149.758 Y178.994 E.15228
G1 X149.758 Y179.53 E.01689
G1 X146.341 Y176.113 E.15228
G1 X146.341 Y176.649 E.01689
G1 X149.758 Y180.066 E.15228
G1 X149.758 Y180.602 E.01689
G1 X146.341 Y177.185 E.15228
G1 X146.341 Y177.721 E.01689
G1 X149.758 Y181.138 E.15228
G1 X149.758 Y181.674 E.01689
G1 X146.341 Y178.257 E.15228
G1 X146.341 Y178.793 E.01689
G1 X149.758 Y182.21 E.15228
G1 X149.758 Y182.746 E.01689
G1 X146.341 Y179.329 E.15228
G1 X146.341 Y179.865 E.01689
G1 X149.758 Y183.282 E.15228
G1 X149.758 Y183.818 E.01689
G1 X146.341 Y180.401 E.15228
G1 X146.341 Y180.937 E.01689
G1 X149.758 Y184.354 E.15228
G1 X149.758 Y184.89 E.01689
G1 X146.341 Y181.473 E.15228
G1 X146.337 Y182.005 E.01675
G1 X149.758 Y185.426 E.15248
G1 X149.758 Y185.962 E.01689
G1 X146.211 Y182.414 E.1581
G1 X146.093 Y182.565 E.00602
G1 X145.943 Y182.682 E.00602
G1 X149.49 Y186.23 E.15809
G1 X148.954 Y186.23 E.01689
G1 X145.533 Y182.808 E.15248
G1 X145.001 Y182.813 E.01675
G1 X148.418 Y186.23 E.15228
G1 X147.882 Y186.23 E.01689
G1 X144.465 Y182.813 E.15228
G1 X143.929 Y182.813 E.01689
G1 X147.346 Y186.23 E.15228
G1 X146.81 Y186.23 E.01689
G1 X143.393 Y182.813 E.15228
G1 X142.857 Y182.813 E.01689
G1 X146.274 Y186.23 E.15228
G1 X145.738 Y186.23 E.01689
G1 X142.321 Y182.813 E.15228
G1 X141.785 Y182.813 E.01689
G1 X145.202 Y186.23 E.15228
G1 X144.666 Y186.23 E.01689
G1 X141.249 Y182.813 E.15228
G1 X140.713 Y182.813 E.01689
G1 X144.13 Y186.23 E.15228
G1 X143.594 Y186.23 E.01689
G1 X140.178 Y182.813 E.15228
G1 X139.642 Y182.813 E.01689
G1 X143.058 Y186.23 E.15228
G1 X142.522 Y186.23 E.01689
G1 X139.106 Y182.813 E.15228
G1 X138.57 Y182.813 E.01689
G1 X141.986 Y186.23 E.15228
G1 X141.45 Y186.23 E.01689
G1 X138.034 Y182.813 E.15228
G1 X137.498 Y182.813 E.01689
G1 X140.915 Y186.23 E.15228
G1 X140.379 Y186.23 E.01689
G1 X136.962 Y182.813 E.15228
G1 X136.426 Y182.813 E.01689
G1 X139.843 Y186.23 E.15228
G1 X139.307 Y186.23 E.01689
G1 X135.89 Y182.813 E.15228
G1 X135.354 Y182.813 E.01689
G1 X138.771 Y186.23 E.15228
G1 X138.235 Y186.23 E.01689
G1 X134.818 Y182.813 E.15228
